modules/coreui-icons-brand/icons/ibm.svg

<svg xmlns="http://www.w3.org/2000/svg" width="32" height="32" viewBox="0 0 32 32"><path d="M0 21.527h6.224v.889H0zm0-1.71h6.224v.891H0zm1.771-1.708h2.672v.896H1.771zm0-1.702h2.672v.896H1.771zm0-1.71h2.672v.896H1.771zm0-1.708h2.672v.896H1.771zM0 11.287h6.224v.896H0zm0-1.703h6.224v.889H0zm7.109 11.124h9.568c.161-.276.287-.577.359-.891H7.109zm8.823-4.301H8.891v.896h7.792a3.638 3.638 0 00-.745-.896zm-7.047-1.71v.896h7.047c.303-.249.547-.552.751-.896zm7.792-3.41H7.109v.896h9.921a3.643 3.643 0 00-.353-.896zM13.74 9.584H7.109v.889h8.912a3.367 3.367 0 00-2.281-.889zm-4.855 3.405h2.667v.896H8.885zm5.339.896h2.787a3.43 3.43 0 00.12-.896h-2.907zm-5.339 4.224h2.667v.896H8.885zm5.339 0v.896h2.907c0-.308-.043-.609-.12-.896zm-7.115 4.303l6.625.004c.891 0 1.692-.337 2.292-.889H7.109zm10.672-.885h4.437v.889h-4.437zm0-1.71h4.437v.891h-4.437zm1.771-1.708h2.667v.896h-2.667zm0-1.702h2.667v.896h-2.667zm3.907-5.12h-5.677v.896h5.984zm-.59-1.703h-5.088v.889h5.396zm4.683 11.943H32v.889h-4.448zm0-1.71H32v.891h-4.448zm0-1.708h2.667v.896h-2.667zm0-1.702h2.667v.896h-2.667zm0-.814h2.667v-.896H25.14l-.255.724-.249-.724h-5.084v.896h2.667v-.823l.287.823h4.765l.281-.823zm2.667-2.604H25.73l-.308.896h4.797zm-3.307-3.405l-.308.889H32v-.889zm-2.027 12.828l.308-.885h-.615zm-.588-1.704h1.181l.319-.891h-1.813zm-.6-1.703h2.381l.312-.896h-3.005zm-.593-1.702h3.573l.301-.896h-4.181zm-3.552-3.418h4.803l-.308-.896h-4.495zm6.464-1.702H32v-.896h-5.683z"/></svg>

<svg version="1.1" xmlns="http://www.w3.org/2000/svg" width="32" height="32" viewBox="0 0 32 32">
<title>ibm</title>
<path d="M0 21.527h6.224v0.889h-6.224zM0 19.817h6.224v0.891h-6.224zM1.771 18.109h2.672v0.896h-2.672zM1.771 16.407h2.672v0.896h-2.672zM1.771 14.697h2.672v0.896h-2.672zM1.771 12.989h2.672v0.896h-2.672zM0 11.287h6.224v0.896h-6.224zM0 9.584h6.224v0.889h-6.224zM7.109 20.708h9.568c0.161-0.276 0.287-0.577 0.359-0.891h-9.927zM15.932 16.407h-7.041v0.896h7.792c-0.199-0.339-0.453-0.641-0.745-0.896zM8.885 14.697v0.896h7.047c0.303-0.249 0.547-0.552 0.751-0.896zM16.677 11.287h-9.568v0.896h9.921c-0.077-0.313-0.197-0.615-0.353-0.896zM13.74 9.584h-6.631v0.889h8.912c-0.62-0.572-1.437-0.889-2.281-0.889zM8.885 12.989h2.667v0.896h-2.667zM14.224 13.885h2.787c0.077-0.287 0.12-0.583 0.12-0.896h-2.907zM8.885 18.109h2.667v0.896h-2.667zM14.224 18.109v0.896h2.907c0-0.308-0.043-0.609-0.12-0.896zM7.109 22.412l6.625 0.004c0.891 0 1.692-0.337 2.292-0.889h-8.917zM17.781 21.527h4.437v0.889h-4.437zM17.781 19.817h4.437v0.891h-4.437zM19.552 18.109h2.667v0.896h-2.667zM19.552 16.407h2.667v0.896h-2.667zM23.459 11.287h-5.677v0.896h5.984zM22.869 9.584h-5.088v0.889h5.396zM27.552 21.527h4.448v0.889h-4.448zM27.552 19.817h4.448v0.891h-4.448zM27.552 18.109h2.667v0.896h-2.667zM27.552 16.407h2.667v0.896h-2.667zM27.552 15.593h2.667v-0.896h-5.079l-0.255 0.724-0.249-0.724h-5.084v0.896h2.667v-0.823l0.287 0.823h4.765l0.281-0.823zM30.219 12.989h-4.489l-0.308 0.896h4.797zM26.912 9.584l-0.308 0.889h5.396v-0.889zM24.885 22.412l0.308-0.885h-0.615zM24.297 20.708h1.181l0.319-0.891h-1.813zM23.697 19.005h2.381l0.312-0.896h-3.005zM23.104 17.303h3.573l0.301-0.896h-4.181zM19.552 13.885h4.803l-0.308-0.896h-4.495zM26.016 12.183h5.984v-0.896h-5.683z"></path>
</svg>
